; generated by SuperSlicer 2.5.59 on 2023-12-15 at 12:32:06 UTC

; 

; external perimeters extrusion width = 0.42mm
; perimeters extrusion width = 0.42mm
; infill extrusion width = 0.42mm
; solid infill extrusion width = 0.42mm
; top infill extrusion width = 0.42mm
; first layer extrusion width = 0.42mm

; external perimeters extrusion width = 0.42mm
; perimeters extrusion width = 0.42mm
; infill extrusion width = 0.42mm
; solid infill extrusion width = 0.42mm
; top infill extrusion width = 0.42mm
; first layer extrusion width = 0.42mm

; external perimeters extrusion width = 0.42mm
; perimeters extrusion width = 0.42mm
; infill extrusion width = 0.42mm
; solid infill extrusion width = 0.42mm
; top infill extrusion width = 0.42mm
; first layer extrusion width = 0.42mm

; external perimeters extrusion width = 0.42mm
; perimeters extrusion width = 0.42mm
; infill extrusion width = 0.42mm
; solid infill extrusion width = 0.42mm
; top infill extrusion width = 0.42mm
; first layer extrusion width = 0.42mm

; external perimeters extrusion width = 0.42mm
; perimeters extrusion width = 0.42mm
; infill extrusion width = 0.42mm
; solid infill extrusion width = 0.42mm
; top infill extrusion width = 0.42mm
; first layer extrusion width = 0.42mm

; object:{"name":"filament_flow_test","id":"filament_flow_test id:0 copy 0","object_center":[95.299999,35.599998,0.000000],"boundingbox_center":[95.299999,35.599998,0.700000],"boundingbox_size":[20.000000,20.000000,1.400000]}
; object:{"name":"filament_flow_test","id":"filament_flow_test id:1 copy 0","object_center":[95.299999,105.000000,0.000000],"boundingbox_center":[95.299999,105.000000,0.700000],"boundingbox_size":[20.000000,20.000000,1.400000]}
; object:{"name":"filament_flow_test","id":"filament_flow_test id:2 copy 0","object_center":[95.299999,174.400002,0.000000],"boundingbox_center":[95.299999,174.400002,0.700000],"boundingbox_size":[20.000000,20.000000,1.400000]}
; object:{"name":"filament_flow_test","id":"filament_flow_test id:3 copy 0","object_center":[164.700001,35.599998,0.000000],"boundingbox_center":[164.700001,35.599998,0.700000],"boundingbox_size":[20.000000,20.000000,1.400000]}
; object:{"name":"filament_flow_test","id":"filament_flow_test id:4 copy 0","object_center":[164.700001,174.400002,0.000000],"boundingbox_center":[164.700001,174.400002,0.700000],"boundingbox_size":[20.000000,20.000000,1.400000]}
; Total objects to print: 5
M486 T5
; plater:{"center":[130.000000,105.000000,0.000000],"boundingbox_center":[130.000000,105.000000,0.700000],"boundingbox_size":[89.400002,158.800003,1.400000]}

M73 P0 R21
M73 Q0 S21
M201 X1000 Y1000 Z200 E5000 ; sets maximum accelerations, mm/sec^2
M203 X200 Y200 Z12 E120 ; sets maximum feedrates, mm / sec
M204 P1250 R1250 T1250 ; sets acceleration (P, T) and retract acceleration (R), mm/sec^2
M205 X8.00 Y8.00 Z0.40 E4.50 ; sets the jerk limits, mm/sec
M205 S0 T0 ; sets the minimum extruding and travel feed rate, mm/sec
;TYPE:Custom
M862.3 P "MK3S" ; printer model check
M862.1 P0.4 ; nozzle diameter check
M115 U3.10.1 ; tell printer latest fw version
G90 ; use absolute coordinates
M83 ; extruder relative mode
M104 S215 ; set extruder temp
M140 S60 ; set bed temp
M190 S60 ; wait for bed temp
M109 S215 ; wait for extruder temp
G28 W ; home all without mesh bed level
G80 ; mesh bed leveling
G1 Z0.2 F720
G1 Y-3 F1000 ; go outside print area
G92 E0
M73 P1 R21
M73 Q1 S21
G1 X60 E9 F1000 ; intro line
G1 X100 E12.5 F1000 ; intro line
G92 E0
M221 S95

; Don't change E values below. Excessive value can damage the printer.
M907 E430 ; set extruder motor current
M107
G21 ; set units to millimeters
G90 ; use absolute coordinates
M83 ; use relative distances for extrusion
M900 K0.05 ; Filament gcode LA 1.5
M900 K30 ; Filament gcode LA 1.0
;_TOOLCHANGE 0
M107
;LAYER_CHANGE
;Z:0.2
;HEIGHT:0.2
;BEFORE_LAYER_CHANGE
G92 E0.0
;0.2


G1 E-0.8 F2100
M73 P2 R21
M73 Q2 S21
G1 Z0.4 F720
;AFTER_LAYER_CHANGE
;0.2
G1 Z0.6
M204 S800
G1 X81.861 Y24.4 F10800
G1 Z0.2 F720
G1 E0.8 F2100
;TYPE:Skirt
;WIDTH:0.52
M107
G1 F1200
G1 X81.861 Y185.6 E6.3947
G1 X82.013 Y186.411 E0.03273
G1 X82.836 Y187.447 E0.05249
G1 X84.1 Y187.839 E0.05249
G1 X165.9 Y187.839 E3.24495
G1 X166.443 Y187.772 E0.0217
M73 P3 R21
G1 X176.443 Y185.272 E0.4089
G1 X177.747 Y184.364 E0.06304
M73 Q3 S21
G1 X178.139 Y183.1 E0.05249
G1 X178.139 Y26.9 E6.19635
G1 X177.574 Y25.414 E0.06304
M73 P3 R20
G1 X176.443 Y24.728 E0.05249
G1 X166.443 Y22.228 E0.4089
G1 X165.9 Y22.161 E0.0217
G1 X84.1 Y22.161 E3.24495
G1 X83.289 Y22.313 E0.03273
M73 P4 R20
M73 Q4 S20
G1 X82.253 Y23.136 E0.05249
G1 X81.879 Y24.343 E0.05011
M107
;WIPE_START
G1 F8640
M204 S1000
G1 X82.253 Y23.136 E-0.29167
G1 X83.289 Y22.313 E-0.30553
G1 X83.982 Y22.184 E-0.1628
;WIPE_END
G1 E-0.04 F2100
G1 Z0.6 F720
; acceleration to travel
M204 S1500
G1 X142.88 Y140.631 F10800
; decel to extrusion
M204 S800
G1 X154.33 Y163.658
; end travel
G1 Z0.2 F720
G1 E0.8 F2100
;WIDTH:0.42
M107
G1 F1200
G1 X154.537 Y163.572 E0.00703
G1 X154.61 Y163.557 E0.00233
G1 X164.79 Y163.557 E0.3192
G1 X164.863 Y163.572 E0.00233
G1 X165.07 Y163.658 E0.00703
G1 X165.132 Y163.699 E0.00233
G1 X165.401 Y163.968 E0.01193
G1 X165.442 Y164.03 E0.00233
G1 X165.528 Y164.237 E0.00703
G1 X165.543 Y164.31 E0.00233
G1 X165.543 Y166.057 E0.05479
G1 X174.79 Y166.057 E0.28995
G1 X174.863 Y166.072 E0.00233
G1 X175.07 Y166.158 E0.00703
G1 X175.132 Y166.199 E0.00233
G1 X175.401 Y166.468 E0.01193
G1 X175.442 Y166.53 E0.00233
G1 X175.528 Y166.737 E0.00703
G1 X175.543 Y166.81 E0.00233
G1 X175.543 Y181.99 E0.47597
G1 X175.528 Y182.063 E0.00233
G1 X175.442 Y182.27 E0.00703
G1 X175.401 Y182.332 E0.00233
G1 X175.132 Y182.601 E0.01193
G1 X175.07 Y182.642 E0.00233
G1 X174.863 Y182.728 E0.00703
G1 X174.79 Y182.743 E0.00233
G1 X165.543 Y182.743 E0.28995
G1 X165.543 Y184.49 E0.05479
G1 X165.528 Y184.563 E0.00233
G1 X165.442 Y184.77 E0.00703
G1 X165.401 Y184.832 E0.00233
G1 X165.132 Y185.101 E0.01193
G1 X165.07 Y185.142 E0.00233
G1 X164.863 Y185.228 E0.00703
G1 X164.79 Y185.243 E0.00233
G1 X154.61 Y185.243 E0.3192
G1 X154.537 Y185.228 E0.00233
G1 X154.33 Y185.142 E0.00703
G1 X154.268 Y185.101 E0.00233
G1 X153.999 Y184.832 E0.01193
G1 X153.958 Y184.77 E0.00233
G1 X153.872 Y184.563 E0.00703
G1 X153.857 Y184.49 E0.00233
G1 X153.857 Y164.31 E0.63275
G1 X153.872 Y164.237 E0.00233
G1 X153.958 Y164.03 E0.00703
G1 X153.999 Y163.968 E0.00233
G1 X154.28 Y163.691 E0.01237
M107
G1 X154.508 Y163.992 F10800
M107
G1 F1200
G1 X154.647 Y163.934 E0.0047
G1 X164.753 Y163.934 E0.31687
G1 X164.892 Y163.992 E0.0047
G1 X165.108 Y164.208 E0.0096
G1 X165.166 Y164.347 E0.0047
G1 X165.166 Y166.434 E0.06545
G1 X174.753 Y166.434 E0.30061
G1 X174.892 Y166.492 E0.0047
G1 X175.108 Y166.708 E0.0096
G1 X175.166 Y166.847 E0.0047
G1 X175.166 Y181.953 E0.47365
G1 X175.108 Y182.092 E0.0047
G1 X174.892 Y182.308 E0.0096
G1 X174.753 Y182.366 E0.0047
G1 X165.166 Y182.366 E0.30061
G1 X165.166 Y184.453 E0.06545
G1 X165.108 Y184.592 E0.0047
G1 X164.892 Y184.808 E0.0096
G1 X164.753 Y184.866 E0.0047
G1 X154.647 Y184.866 E0.31687
G1 X154.508 Y184.808 E0.0047
G1 X154.292 Y184.592 E0.0096
G1 X154.234 Y184.453 E0.0047
G1 X154.234 Y164.347 E0.63042
G1 X154.292 Y164.208 E0.0047
G1 X154.466 Y164.034 E0.00772
M107
G1 X154.722 Y164.311 F10800
M107
G1 F1200
G1 X164.678 Y164.311 E0.31217
G1 X164.789 Y164.422 E0.0049
G1 X164.789 Y166.811 E0.07492
G1 X174.678 Y166.811 E0.31008
G1 X174.789 Y166.922 E0.0049
G1 X174.789 Y181.878 E0.46894
G1 X174.678 Y181.989 E0.0049
G1 X164.789 Y181.989 E0.31008
G1 X164.789 Y184.378 E0.07492
M73 Q5 S20
G1 X164.678 Y184.489 E0.0049
G1 X154.722 Y184.489 E0.31217
G1 X154.611 Y184.378 E0.0049
M73 P5 R20
G1 X154.611 Y164.422 E0.62571
G1 X154.679 Y164.354 E0.00302
M107
;WIPE_START
G1 F8640
M204 S1000
G1 X154.611 Y164.422 E-0.02221
G1 X154.611 Y167.617 E-0.73779
;WIPE_END
G1 E-0.04 F2100
G1 Z0.6 F720
; acceleration to travel
M204 S1500
G1 X114.031 Y166.941 F10800
; decel to extrusion
M204 S800
G1 X106.143 Y166.81
; end travel
G1 Z0.2 F720
G1 E0.8 F2100
M107
G1 F1200
G1 X106.143 Y181.99 E0.47597
G1 X106.128 Y182.063 E0.00233
G1 X106.042 Y182.27 E0.00703
G1 X106.001 Y182.332 E0.00233
G1 X105.732 Y182.601 E0.01193
G1 X105.67 Y182.642 E0.00233
G1 X105.463 Y182.728 E0.00703
G1 X105.39 Y182.743 E0.00233
G1 X96.143 Y182.743 E0.28995
G1 X96.143 Y184.49 E0.05479
G1 X96.128 Y184.563 E0.00233
G1 X96.042 Y184.77 E0.00703
G1 X96.001 Y184.832 E0.00233
G1 X95.732 Y185.101 E0.01193
G1 X95.67 Y185.142 E0.00233
G1 X95.463 Y185.228 E0.00703
G1 X95.39 Y185.243 E0.00233
G1 X85.21 Y185.243 E0.3192
G1 X85.137 Y185.228 E0.00233
G1 X84.93 Y185.142 E0.00703
G1 X84.868 Y185.101 E0.00233
G1 X84.599 Y184.832 E0.01193
G1 X84.558 Y184.77 E0.00233
G1 X84.472 Y184.563 E0.00703
G1 X84.457 Y184.49 E0.00233
G1 X84.457 Y164.31 E0.63275
G1 X84.472 Y164.237 E0.00233
G1 X84.558 Y164.03 E0.00703
G1 X84.599 Y163.968 E0.00233
G1 X84.868 Y163.699 E0.01193
G1 X84.93 Y163.658 E0.00233
G1 X85.137 Y163.572 E0.00703
G1 X85.21 Y163.557 E0.00233
G1 X95.39 Y163.557 E0.3192
G1 X95.463 Y163.572 E0.00233
G1 X95.67 Y163.658 E0.00703
G1 X95.732 Y163.699 E0.00233
G1 X96.001 Y163.968 E0.01193
G1 X96.042 Y164.03 E0.00233
G1 X96.128 Y164.237 E0.00703
G1 X96.143 Y164.31 E0.00233
G1 X96.143 Y166.057 E0.05479
G1 X105.39 Y166.057 E0.28995
G1 X105.463 Y166.072 E0.00233
G1 X105.67 Y166.158 E0.00703
G1 X105.732 Y166.199 E0.00233
G1 X106.001 Y166.468 E0.01193
G1 X106.042 Y166.53 E0.00233
G1 X106.131 Y166.751 E0.00747
M107
G1 X105.766 Y166.847 F10800
M107
G1 F1200
G1 X105.766 Y181.953 E0.47365
G1 X105.708 Y182.092 E0.0047
G1 X105.492 Y182.308 E0.0096
G1 X105.353 Y182.366 E0.0047
G1 X95.766 Y182.366 E0.30061
G1 X95.766 Y184.453 E0.06545
G1 X95.708 Y184.592 E0.0047
G1 X95.492 Y184.808 E0.0096
G1 X95.353 Y184.866 E0.0047
G1 X85.247 Y184.866 E0.31687
G1 X85.108 Y184.808 E0.0047
G1 X84.892 Y184.592 E0.0096
G1 X84.834 Y184.453 E0.0047
G1 X84.834 Y164.347 E0.63042
G1 X84.892 Y164.208 E0.0047
G1 X85.108 Y163.992 E0.0096
G1 X85.247 Y163.934 E0.0047
G1 X95.353 Y163.934 E0.31687
G1 X95.492 Y163.992 E0.0047
G1 X95.708 Y164.208 E0.0096
G1 X95.766 Y164.347 E0.0047
G1 X95.766 Y166.434 E0.06545
G1 X105.353 Y166.434 E0.30061
G1 X105.492 Y166.492 E0.0047
G1 X105.708 Y166.708 E0.0096
G1 X105.743 Y166.791 E0.00282
M107
G1 X105.389 Y166.922 F10800
M107
G1 F1200
G1 X105.389 Y181.878 E0.46894
G1 X105.278 Y181.989 E0.0049
G1 X95.389 Y181.989 E0.31008
G1 X95.389 Y184.378 E0.07492
G1 X95.278 Y184.489 E0.0049
G1 X85.322 Y184.489 E0.31217
G1 X85.211 Y184.378 E0.0049
G1 X85.211 Y164.422 E0.62571
G1 X85.322 Y164.311 E0.0049
M73 P6 R20
M73 Q6 S20
G1 X95.278 Y164.311 E0.31217
G1 X95.389 Y164.422 E0.0049
G1 X95.389 Y166.811 E0.07492
G1 X105.278 Y166.811 E0.31008
G1 X105.346 Y166.879 E0.00302
M107
;WIPE_START
G1 F8640
M204 S1000
G1 X105.278 Y166.811 E-0.02221
G1 X102.083 Y166.811 E-0.73779
;WIPE_END
G1 E-0.04 F2100
G1 Z0.6 F720
; acceleration to travel
M204 S1500
G1 X96.48 Y124.138 F10800
; decel to extrusion
M204 S800
G1 X95.39 Y115.843
; end travel
G1 Z0.2 F720
G1 E0.8 F2100
M107
G1 F1200
G1 X85.21 Y115.843 E0.3192
G1 X85.137 Y115.828 E0.00233
G1 X84.93 Y115.742 E0.00703
G1 X84.868 Y115.701 E0.00233
G1 X84.599 Y115.432 E0.01193
G1 X84.558 Y115.37 E0.00233
G1 X84.472 Y115.163 E0.00703
G1 X84.457 Y115.09 E0.00233
G1 X84.457 Y94.91 E0.63275
G1 X84.472 Y94.837 E0.00233
G1 X84.558 Y94.63 E0.00703
G1 X84.599 Y94.568 E0.00233
G1 X84.868 Y94.299 E0.01193
G1 X84.93 Y94.258 E0.00233
G1 X85.137 Y94.172 E0.00703
G1 X85.21 Y94.157 E0.00233
G1 X95.39 Y94.157 E0.3192
G1 X95.463 Y94.172 E0.00233
G1 X95.67 Y94.258 E0.00703
G1 X95.732 Y94.299 E0.00233
G1 X96.001 Y94.568 E0.01193
G1 X96.042 Y94.63 E0.00233
G1 X96.128 Y94.837 E0.00703
G1 X96.143 Y94.91 E0.00233
G1 X96.143 Y96.657 E0.05479
G1 X105.39 Y96.657 E0.28995
G1 X105.463 Y96.672 E0.00233
G1 X105.67 Y96.758 E0.00703
G1 X105.732 Y96.799 E0.00233
G1 X106.001 Y97.068 E0.01193
G1 X106.042 Y97.13 E0.00233
G1 X106.128 Y97.337 E0.00703
G1 X106.143 Y97.41 E0.00233
G1 X106.143 Y112.59 E0.47597
G1 X106.128 Y112.663 E0.00233
G1 X106.042 Y112.87 E0.00703
G1 X106.001 Y112.932 E0.00233
G1 X105.732 Y113.201 E0.01193
G1 X105.67 Y113.242 E0.00233
G1 X105.463 Y113.328 E0.00703
G1 X105.39 Y113.343 E0.00233
G1 X96.143 Y113.343 E0.28995
G1 X96.143 Y115.09 E0.05479
G1 X96.128 Y115.163 E0.00233
G1 X96.042 Y115.37 E0.00703
G1 X96.001 Y115.432 E0.00233
G1 X95.732 Y115.701 E0.01193
G1 X95.67 Y115.742 E0.00233
G1 X95.449 Y115.831 E0.00747
M107
G1 X95.353 Y115.466 F10800
M107
G1 F1200
G1 X85.247 Y115.466 E0.31687
G1 X85.108 Y115.408 E0.0047
G1 X84.892 Y115.192 E0.0096
G1 X84.834 Y115.053 E0.0047
G1 X84.834 Y94.947 E0.63042
G1 X84.892 Y94.808 E0.0047
G1 X85.108 Y94.592 E0.0096
G1 X85.247 Y94.534 E0.0047
G1 X95.353 Y94.534 E0.31687
G1 X95.492 Y94.592 E0.0047
G1 X95.708 Y94.808 E0.0096
G1 X95.766 Y94.947 E0.0047
G1 X95.766 Y97.034 E0.06545
G1 X105.353 Y97.034 E0.30061
G1 X105.492 Y97.092 E0.0047
G1 X105.708 Y97.308 E0.0096
G1 X105.766 Y97.447 E0.0047
G1 X105.766 Y112.553 E0.47365
G1 X105.708 Y112.692 E0.0047
G1 X105.492 Y112.908 E0.0096
G1 X105.353 Y112.966 E0.0047
G1 X95.766 Y112.966 E0.30061
G1 X95.766 Y115.053 E0.06545
G1 X95.708 Y115.192 E0.0047
G1 X95.492 Y115.408 E0.0096
G1 X95.409 Y115.443 E0.00282
M107
G1 X95.278 Y115.089 F10800
M107
G1 F1200
G1 X85.322 Y115.089 E0.31217
G1 X85.211 Y114.978 E0.0049
G1 X85.211 Y95.022 E0.62571
G1 X85.322 Y94.911 E0.0049
G1 X95.278 Y94.911 E0.31217
G1 X95.389 Y95.022 E0.0049
M73 Q7 S20
G1 X95.389 Y97.411 E0.07492
G1 X105.278 Y97.411 E0.31008
M73 P7 R20
G1 X105.389 Y97.522 E0.0049
G1 X105.389 Y112.478 E0.46894
G1 X105.278 Y112.589 E0.0049
G1 X95.389 Y112.589 E0.31008
G1 X95.389 Y114.978 E0.07492
G1 X95.321 Y115.046 E0.00302
M107
;WIPE_START
G1 F8640
M204 S1000
G1 X95.389 Y114.978 E-0.02221
G1 X95.389 Y112.589 E-0.55176
G1 X96.194 Y112.589 E-0.18603
;WIPE_END
G1 E-0.04 F2100
G1 Z0.6 F720
; acceleration to travel
M204 S1500
G1 X144.816 Y57.09 F10800
; decel to extrusion
M204 S800
G1 X154.268 Y46.301
; end travel
G1 Z0.2 F720
G1 E0.8 F2100
M107
G1 F1200
G1 X153.999 Y46.032 E0.01193
G1 X153.958 Y45.97 E0.00233
G1 X153.872 Y45.763 E0.00703
G1 X153.857 Y45.69 E0.00233
G1 X153.857 Y25.51 E0.63275
G1 X153.872 Y25.437 E0.00233
G1 X153.958 Y25.23 E0.00703
G1 X153.999 Y25.168 E0.00233
G1 X154.268 Y24.899 E0.01193
G1 X154.33 Y24.858 E0.00233
G1 X154.537 Y24.772 E0.00703
G1 X154.61 Y24.757 E0.00233
G1 X164.79 Y24.757 E0.3192
G1 X164.863 Y24.772 E0.00233
G1 X165.07 Y24.858 E0.00703
G1 X165.132 Y24.899 E0.00233
G1 X165.401 Y25.168 E0.01193
G1 X165.442 Y25.23 E0.00233
G1 X165.528 Y25.437 E0.00703
G1 X165.543 Y25.51 E0.00233
G1 X165.543 Y27.257 E0.05479
G1 X174.79 Y27.257 E0.28995
G1 X174.863 Y27.272 E0.00233
G1 X175.07 Y27.358 E0.00703
G1 X175.132 Y27.399 E0.00233
G1 X175.401 Y27.668 E0.01193
G1 X175.442 Y27.73 E0.00233
G1 X175.528 Y27.937 E0.00703
G1 X175.543 Y28.01 E0.00233
G1 X175.543 Y43.19 E0.47597
G1 X175.528 Y43.263 E0.00233
G1 X175.442 Y43.47 E0.00703
G1 X175.401 Y43.532 E0.00233
G1 X175.132 Y43.801 E0.01193
G1 X175.07 Y43.842 E0.00233
G1 X174.863 Y43.928 E0.00703
G1 X174.79 Y43.943 E0.00233
G1 X165.543 Y43.943 E0.28995
G1 X165.543 Y45.69 E0.05479
G1 X165.528 Y45.763 E0.00233
G1 X165.442 Y45.97 E0.00703
G1 X165.401 Y46.032 E0.00233
G1 X165.132 Y46.301 E0.01193
G1 X165.07 Y46.342 E0.00233
G1 X164.863 Y46.428 E0.00703
G1 X164.79 Y46.443 E0.00233
G1 X154.61 Y46.443 E0.3192
G1 X154.537 Y46.428 E0.00233
G1 X154.318 Y46.334 E0.00747
M107
G1 X154.508 Y46.008 F10800
M107
G1 F1200
G1 X154.292 Y45.792 E0.0096
G1 X154.234 Y45.653 E0.0047
G1 X154.234 Y25.547 E0.63042
G1 X154.292 Y25.408 E0.0047
G1 X154.508 Y25.192 E0.0096
G1 X154.647 Y25.134 E0.0047
G1 X164.753 Y25.134 E0.31687
G1 X164.892 Y25.192 E0.0047
G1 X165.108 Y25.408 E0.0096
G1 X165.166 Y25.547 E0.0047
G1 X165.166 Y27.634 E0.06545
G1 X174.753 Y27.634 E0.30061
G1 X174.892 Y27.692 E0.0047
G1 X175.108 Y27.908 E0.0096
G1 X175.166 Y28.047 E0.0047
G1 X175.166 Y43.153 E0.47365
G1 X175.108 Y43.292 E0.0047
G1 X174.892 Y43.508 E0.0096
G1 X174.753 Y43.566 E0.0047
G1 X165.166 Y43.566 E0.30061
G1 X165.166 Y45.653 E0.06545
